X:14170
%2822
T:Champagne Polka
R:Polka
O:England
M:2/4
L:1/16
B:"The Fiddler of Helperby", Dragonfly Music, ISBN 1-872277-18-7, 1994.
A:Yorkshire
H:Dance Music, 1820-1850
K:Cmaj
"C".e2.G2.c2.E2|"Dm".E2.D2 (D^C).D2|\
"G7".A2.D2.F2.B,2|"C".D2.C2 (CB,).C2|\
"C".e2.G2.c2.E2|"Dm".E2.D2 (D^C).D2|\
"G7".A2.D2.F2.B,2|"C"C2 z2 [E,2C2c2] z2:|
|:"Am"(EDCB,) .A,2.A,2|"Dm"A2A2 F4|\
"E7"(EFED) .C2.B,2|"Am"(DCB,C) .A,2.E,2|\
"Am"(EDCB,) .A,2.A,2|"Dm"A2A2 F4|\
"E7"(EFED) (CB,A,^G,)|"Am"A,2 z2 [E,2C2A2] z2:|
|:
%Error : Guitar chord name not properly closed
""
